Numix/64/apps/goa-account-owncloud.svg

<?xml version="1.0" encoding="UTF-8" standalone="yes"?>
<svg xmlns="http://www.w3.org/2000/svg" xmlns:xlink="http://www.w3.org/1999/xlink" width="64px" height="64px" viewBox="0 0 48 48" version="1.1">
  <g id="surface1">
    <path style="fill-rule:nonzero;fill:rgb(10.980392%,17.647059%,26.666667%);fill-opacity:1;stroke-width:1;stroke-linecap:butt;stroke-linejoin:miter;stroke:rgb(97.647059%,97.647059%,97.647059%);stroke-opacity:1;stroke-miterlimit:4;" d="M 308.82012 78.920168 C 308.82012 90.131323 299.740468 99.238656 288.501632 99.238656 C 277.262795 99.238656 268.183144 90.131323 268.183144 78.920168 C 268.183144 67.681332 277.262795 58.573999 288.501632 58.573999 C 299.740468 58.573999 308.82012 67.681332 308.82012 78.920168 Z M 308.82012 78.920168 " transform="matrix(0.141112,0,0,0.141112,-24.945489,7.765741)"/>
    <path style="fill-rule:nonzero;fill:rgb(10.980392%,17.647059%,26.666667%);fill-opacity:1;stroke-width:1;stroke-linecap:butt;stroke-linejoin:miter;stroke:rgb(97.647059%,97.647059%,97.647059%);stroke-opacity:1;stroke-miterlimit:4;" d="M 288.47395 149.564284 C 288.47395 170.131908 271.781786 186.824072 251.214162 186.824072 C 230.646537 186.824072 213.982055 170.131908 213.982055 149.564284 C 213.982055 128.996659 230.646537 112.332177 251.214162 112.332177 C 271.781786 112.332177 288.47395 128.996659 288.47395 149.564284 Z M 288.47395 149.564284 " transform="matrix(0.141112,0,0,0.141112,-24.945489,7.765741)"/>
    <path style="fill-rule:nonzero;fill:rgb(10.980392%,17.647059%,26.666667%);fill-opacity:1;stroke-width:1;stroke-linecap:butt;stroke-linejoin:miter;stroke:rgb(97.647059%,97.647059%,97.647059%);stroke-opacity:1;stroke-miterlimit:4;" d="M 333.48466 124.789016 C 333.48466 147.017552 315.463767 165.066127 293.23523 165.066127 C 271.006694 165.066127 252.985801 147.017552 252.985801 124.789016 C 252.985801 102.56048 271.006694 84.539586 293.23523 84.539586 C 315.463767 84.539586 333.48466 102.56048 333.48466 124.789016 Z M 333.48466 124.789016 " transform="matrix(0.141112,0,0,0.141112,-24.945489,7.765741)"/>
    <path style="fill-rule:nonzero;fill:rgb(10.980392%,17.647059%,26.666667%);fill-opacity:1;stroke-width:1;stroke-linecap:butt;stroke-linejoin:miter;stroke:rgb(97.647059%,97.647059%,97.647059%);stroke-opacity:1;stroke-miterlimit:4;" d="M 412.571744 108.484398 C 412.571744 129.052023 395.907262 145.716505 375.339638 145.716505 C 354.772013 145.716505 338.107531 129.052023 338.107531 108.484398 C 338.107531 87.916774 354.772013 71.22461 375.339638 71.22461 C 395.907262 71.22461 412.571744 87.916774 412.571744 108.484398 Z M 412.571744 108.484398 " transform="matrix(0.141112,0,0,0.141112,-24.945489,7.765741)"/>
    <path style="fill-rule:nonzero;fill:rgb(10.980392%,17.647059%,26.666667%);fill-opacity:1;stroke-width:1;stroke-linecap:butt;stroke-linejoin:miter;stroke:rgb(97.647059%,97.647059%,97.647059%);stroke-opacity:1;stroke-miterlimit:4;" d="M 371.740995 79.501487 C 371.740995 100.069112 355.076513 116.733594 334.508889 116.733594 C 313.941264 116.733594 297.249101 100.069112 297.249101 79.501487 C 297.249101 58.933863 313.941264 42.269381 334.508889 42.269381 C 355.076513 42.269381 371.740995 58.933863 371.740995 79.501487 Z M 371.740995 79.501487 " transform="matrix(0.141112,0,0,0.141112,-24.945489,7.765741)"/>
    <path style="fill-rule:nonzero;fill:rgb(10.980392%,17.647059%,26.666667%);fill-opacity:1;stroke-width:1;stroke-linecap:butt;stroke-linejoin:miter;stroke:rgb(97.647059%,97.647059%,97.647059%);stroke-opacity:1;stroke-miterlimit:4;" d="M 479.727945 163.958853 C 479.727945 175.723645 470.177702 185.246206 458.41291 185.246206 C 446.6758 185.246206 437.125557 175.723645 437.125557 163.958853 C 437.125557 152.194061 446.6758 142.643818 458.41291 142.643818 C 470.177702 142.643818 479.727945 152.194061 479.727945 163.958853 Z M 479.727945 163.958853 " transform="matrix(0.141112,0,0,0.141112,-24.945489,7.765741)"/>
    <path style="fill-rule:nonzero;fill:rgb(10.980392%,17.647059%,26.666667%);fill-opacity:1;stroke-width:1;stroke-linecap:butt;stroke-linejoin:miter;stroke:rgb(97.647059%,97.647059%,97.647059%);stroke-opacity:1;stroke-miterlimit:4;" d="M 453.430174 147.57119 C 453.430174 169.799726 435.409281 187.820619 413.153063 187.820619 C 390.924527 187.820619 372.903634 169.799726 372.903634 147.57119 C 372.903634 125.314971 390.924527 107.294078 413.153063 107.294078 C 435.409281 107.294078 453.430174 125.314971 453.430174 147.57119 Z M 453.430174 147.57119 " transform="matrix(0.141112,0,0,0.141112,-24.945489,7.765741)"/>
    <path style="fill-rule:nonzero;fill:rgb(10.980392%,17.647059%,26.666667%);fill-opacity:1;stroke-width:1;stroke-linecap:butt;stroke-linejoin:miter;stroke:rgb(97.647059%,97.647059%,97.647059%);stroke-opacity:1;stroke-miterlimit:4;" d="M 312.058898 166.007311 C 312.058898 177.772103 302.536337 187.294664 290.771545 187.294664 C 279.006753 187.294664 269.484192 177.772103 269.484192 166.007311 C 269.484192 154.242519 279.006753 144.719958 290.771545 144.719958 C 302.536337 144.719958 312.058898 154.242519 312.058898 166.007311 Z M 312.058898 166.007311 " transform="matrix(0.141112,0,0,0.141112,-24.945489,7.765741)"/>
    <path style="fill-rule:nonzero;fill:rgb(10.980392%,17.647059%,26.666667%);fill-opacity:1;stroke-width:1;stroke-linecap:butt;stroke-linejoin:miter;stroke:rgb(97.647059%,97.647059%,97.647059%);stroke-opacity:1;stroke-miterlimit:4;" d="M 166.574894 -64.475681 C 166.574894 -43.142688 149.26267 -25.851296 127.929676 -25.851296 C 106.596683 -25.851296 89.305292 -43.142688 89.305292 -64.475681 C 89.305292 -85.808674 106.596683 -103.100065 127.929676 -103.100065 C 149.26267 -103.100065 166.574894 -85.808674 166.574894 -64.475681 Z M 166.574894 -64.475681 " transform="matrix(0.187503,0,0,0.187503,-0.00282153,38.999539)"/>
  </g>
</svg>

<svg xmlns="http://www.w3.org/2000/svg" width="64" height="64" viewBox="0 0 48 48">
 <g>
  <path d="m 308.82 78.92 c 0 11.211 -9.08 20.318 -20.318 20.318 c -11.239 0 -20.318 -9.107 -20.318 -20.318 c 0 -11.239 9.08 -20.346 20.318 -20.346 c 11.239 0 20.318 9.107 20.318 20.346 m 0 0" transform="matrix(0.141112,0,0,0.141112,-24.945489,7.765741)" style="stroke-opacity:1;fill:#1b2d44;stroke-miterlimit:4;fill-opacity:1;stroke:#f9f9f9;fill-rule:nonzero;stroke-linecap:butt;stroke-linejoin:miter;stroke-width:1"/>
  <path d="m 288.47 149.56 c 0 20.568 -16.692 37.26 -37.26 37.26 c -20.568 0 -37.23 -16.692 -37.23 -37.26 c 0 -20.568 16.664 -37.23 37.23 -37.23 c 20.568 0 37.26 16.664 37.26 37.23 m 0 0" transform="matrix(0.141112,0,0,0.141112,-24.945489,7.765741)" style="stroke-opacity:1;fill:#1b2d44;stroke-miterlimit:4;fill-opacity:1;stroke:#f9f9f9;fill-rule:nonzero;stroke-linecap:butt;stroke-linejoin:miter;stroke-width:1"/>
  <path d="m 333.48 124.79 c 0 22.23 -18.02 40.28 -40.25 40.28 c -22.23 0 -40.25 -18.05 -40.25 -40.28 c 0 -22.23 18.02 -40.25 40.25 -40.25 c 22.23 0 40.25 18.02 40.25 40.25 m 0 0" transform="matrix(0.141112,0,0,0.141112,-24.945489,7.765741)" style="stroke-opacity:1;fill:#1b2d44;stroke-miterlimit:4;fill-opacity:1;stroke:#f9f9f9;fill-rule:nonzero;stroke-linecap:butt;stroke-linejoin:miter;stroke-width:1"/>
  <path d="m 412.57 108.48 c 0 20.568 -16.664 37.23 -37.23 37.23 c -20.568 0 -37.23 -16.664 -37.23 -37.23 c 0 -20.568 16.664 -37.26 37.23 -37.26 c 20.568 0 37.23 16.692 37.23 37.26 m 0 0" transform="matrix(0.141112,0,0,0.141112,-24.945489,7.765741)" style="stroke-opacity:1;fill:#1b2d44;stroke-miterlimit:4;fill-opacity:1;stroke:#f9f9f9;fill-rule:nonzero;stroke-linecap:butt;stroke-linejoin:miter;stroke-width:1"/>
  <path d="m 371.74 79.5 c 0 20.568 -16.664 37.23 -37.23 37.23 c -20.568 0 -37.26 -16.664 -37.26 -37.23 c 0 -20.568 16.692 -37.23 37.26 -37.23 c 20.568 0 37.23 16.664 37.23 37.23 m 0 0" transform="matrix(0.141112,0,0,0.141112,-24.945489,7.765741)" style="stroke-opacity:1;fill:#1b2d44;stroke-miterlimit:4;fill-opacity:1;stroke:#f9f9f9;fill-rule:nonzero;stroke-linecap:butt;stroke-linejoin:miter;stroke-width:1"/>
  <path d="m 479.73 163.96 c 0 11.765 -9.55 21.287 -21.315 21.287 c -11.737 0 -21.287 -9.523 -21.287 -21.287 c 0 -11.765 9.55 -21.315 21.287 -21.315 c 11.765 0 21.315 9.55 21.315 21.315 m 0 0" transform="matrix(0.141112,0,0,0.141112,-24.945489,7.765741)" style="stroke-opacity:1;fill:#1b2d44;stroke-miterlimit:4;fill-opacity:1;stroke:#f9f9f9;fill-rule:nonzero;stroke-linecap:butt;stroke-linejoin:miter;stroke-width:1"/>
  <path d="m 453.43 147.57 c 0 22.23 -18.02 40.25 -40.28 40.25 c -22.23 0 -40.25 -18.02 -40.25 -40.25 c 0 -22.256 18.02 -40.28 40.25 -40.28 c 22.256 0 40.28 18.02 40.28 40.28 m 0 0" transform="matrix(0.141112,0,0,0.141112,-24.945489,7.765741)" style="stroke-opacity:1;fill:#1b2d44;stroke-miterlimit:4;fill-opacity:1;stroke:#f9f9f9;fill-rule:nonzero;stroke-linecap:butt;stroke-linejoin:miter;stroke-width:1"/>
  <path d="m 312.06 166.01 c 0 11.765 -9.523 21.287 -21.287 21.287 c -11.765 0 -21.287 -9.523 -21.287 -21.287 c 0 -11.765 9.523 -21.287 21.287 -21.287 c 11.765 0 21.287 9.523 21.287 21.287 m 0 0" transform="matrix(0.141112,0,0,0.141112,-24.945489,7.765741)" style="stroke-opacity:1;fill:#1b2d44;stroke-miterlimit:4;fill-opacity:1;stroke:#f9f9f9;fill-rule:nonzero;stroke-linecap:butt;stroke-linejoin:miter;stroke-width:1"/>
  <path d="m 166.57 -64.48 c 0 21.333 -17.312 38.624 -38.645 38.624 c -21.333 0 -38.624 -17.291 -38.624 -38.624 c 0 -21.333 17.291 -38.624 38.624 -38.624 c 21.333 0 38.645 17.291 38.645 38.624 m 0 0" transform="matrix(0.187503,0,0,0.187503,-0.00282153,38.999539)" style="stroke-opacity:1;fill:#1b2d44;stroke-miterlimit:4;fill-opacity:1;stroke:#f9f9f9;fill-rule:nonzero;stroke-linecap:butt;stroke-linejoin:miter;stroke-width:1"/>
 </g>
</svg>
